X:56
T:Apples in Winter
R:jig
S:Dervish
M:6/8
L:1/8
K:B min
fBB aBB |fec cBc |~A2A cAc |efg ~a2a|
fBB aBB |fec cBc |Ace ~a2a|fec Bce :||
fbb baf |~b2b baf |~a2a aec |Ace a^ga |
fbb fbb |eaa eaa |fec ~a2a|fec Bce :||
K:A min
eAA gAA | edB BAB | ~G2 G BGB | def ~g2 g|
eAA gAA | edB BAB | GBd ~g2 g | edB ABd :||
eaa age | ~a2 a age | ~g2 g gdB | GBd gfg |
eaa eaa | dgg dgg | edB ~g2 g | edB ABd :||
